.local/share/icons/Gruvbox-Plus-Dark/panel/24/yate-tray.svg

<svg xmlns="http://www.w3.org/2000/svg" width="24" height="24" version="1.1">
 <defs>
  <style id="current-color-scheme" type="text/css">
   .ColorScheme-Text { color:#ebdbb2; } .ColorScheme-Highlight { color:#458588; }
  </style>
 </defs>
 <path style="fill:currentColor" class="ColorScheme-Text" d="M 11.601953,4.0012736 C 9.48373,4.0364516 7.832904,4.8231363 6.269922,6.3743205 4.580574,8.0509171 3.972257,9.5906512 3.978906,12.169242 c 0.0043,1.683165 0.24377,2.81499 0.792969,3.742187 l 0.294922,0.498047 -0.734375,1.455078 C 3.929346,18.664647 3,19.908941 3,20.000051 c 0,0.253448 1.645627,-0.476726 2.848047,-0.97534 l 1.042969,-0.431641 0.960937,0.449219 c 0.529133,0.246645 1.535163,0.574046 2.236328,0.726562 0.945319,0.205627 1.250139,0.261547 2.326172,0.216797 2.262478,-0.09408 3.794515,-0.727884 5.240235,-2.167969 1.457084,-1.451405 2.184891,-3.196799 2.326172,-5.576171 C 20.23379,7.9818068 17.956983,4.9821883 13.889063,4.2161174 13.065371,4.0609996 12.308028,3.9895478 11.601953,4.0012736 Z M 9.535547,6.9993205 c 0.265696,0 0.741434,0.5671788 1.097656,1.3066405 0.388228,0.8059142 0.384274,1.0499642 -0.01758,1.3144532 -0.53122,0.349638 -0.96875,0.8229788 -0.96875,1.0468748 0,0.115608 0.335827,0.562297 0.746094,0.992187 0.670614,0.702688 0.779876,0.889556 1.085938,1.859375 0.191128,0.605625 0.431799,1.135695 0.548828,1.208985 0.164935,0.103292 0.370847,0.04254 0.982422,-0.294922 l 0.246093,-0.136719 c 0.48473,-0.267468 0.538121,-0.364969 0.871094,0.136719 0.189607,0.234578 0.48431,0.72058 0.654297,1.080078 0.368609,0.779549 0.304588,0.958058 -0.449219,1.259766 -1.681004,0.67281 -2.634884,-0.04942 -4.626953,-3.498047 C 8.036065,10.384677 7.712602,9.2873882 8.221092,8.253227 8.486905,7.7126159 9.234933,6.9993205 9.535545,6.9993205 Z"/>
</svg>

<svg width="24" height="24" version="1.1" xmlns="http://www.w3.org/2000/svg">
  <defs>
    <style id="current-color-scheme" type="text/css">.ColorScheme-Text { color:#ebdbb2; } .ColorScheme-Highlight { color:#458588; } .ColorScheme-NeutralText { color:#fe8019; } .ColorScheme-PositiveText { color:#689d6a; } .ColorScheme-NegativeText { color:#fb4934; }</style>
  </defs>
  <path class="ColorScheme-Text" d="m11.6 4.001c-2.118 0.03518-3.769 0.8219-5.332 2.373-1.689 1.677-2.298 3.216-2.291 5.795 0.0043 1.683 0.2438 2.815 0.793 3.742l0.2949 0.498-0.7344 1.455c-0.4031 0.8001-1.332 2.044-1.332 2.135 0 0.2534 1.646-0.4767 2.848-0.9753l1.043-0.4316 0.9609 0.4492c0.5291 0.2466 1.535 0.574 2.236 0.7266 0.9453 0.2056 1.25 0.2615 2.326 0.2168 2.262-0.09408 3.795-0.7279 5.24-2.168 1.457-1.451 2.185-3.197 2.326-5.576 0.2529-4.26-2.024-7.259-6.092-8.025-0.8237-0.1551-1.581-0.2266-2.287-0.2148zm-2.066 2.998c0.2657 0 0.7414 0.5672 1.098 1.307 0.3882 0.8059 0.3843 1.05-0.01758 1.314-0.5312 0.3496-0.9688 0.823-0.9688 1.047 0 0.1156 0.3358 0.5623 0.7461 0.9922 0.6706 0.7027 0.7799 0.8896 1.086 1.859 0.1911 0.6056 0.4318 1.136 0.5488 1.209 0.1649 0.1033 0.3708 0.04254 0.9824-0.2949l0.2461-0.1367c0.4847-0.2675 0.5381-0.365 0.8711 0.1367 0.1896 0.2346 0.4843 0.7206 0.6543 1.08 0.3686 0.7795 0.3046 0.9581-0.4492 1.26-1.681 0.6728-2.635-0.04942-4.627-3.498-1.669-2.89-1.993-3.987-1.484-5.021 0.2658-0.5406 1.014-1.254 1.314-1.254z" fill="currentColor"/>
</svg>
